X:1
T:Rimsky-Korsakov Harmonic Exercises,
T:Polytonic progressions (4)
T:Rimsky-Korsakov Harmonic Exercises, Polytonic progressions (4)
T:"Practical Manual of Harmony" (1885)
T:Realizations by S. Shchetnikov
%%score { ( 1 2 ) | ( 3 4 ) }
L:1/8
Q:1/2=130
M:4/1
K:C
V:1 treble nm="Piano" snm="Pno."
V:2 treble 
V:3 bass 
V:4 bass 
V:1
"^C -- D♭""^Exercise: compose modulations using polytonic progressions.\nRealizations:\n\n\n\n\n" (G8 G8 _G8 !breath!F8) |] %1
"^C -- c♯" (c8 _B8 ^B8 !breath!^c8) |]"^C -- D (d)" (G8 G8 G8 !breath!!courtesy!^F8) |] %3
"^C -- E♭" (c8 _d8 =d8 !breath!_e8) |]"^C -- d♯" (c8 _d8 ^^c8 !breath!^d8) |] %5
"^C -- E (e)" (G8 ^G8 =A8 !breath!!courtesy!^G8) |] %6
"^C -- f (F)" (c8 _B8 _B8 !breath!!courtesy!_A8) |]"^C -- G♭" (c8 B8 _c8 !breath!_B8) |] %8
"^C -- f♯" (c8 B8 B8 !breath!A8) |]"^C -- G" (c8 _d8 c8 !breath!B8) |] %10
"^C -- g" (c8 _B8- B4 A4 !breath!_B8) |]"^C -- A (a)" (c8 _d8 =d8 !breath!!courtesy!^c8) |] %12
"^C -- b♭ (B♭)" (c8 _B8 A8 !breath!_B8) |]"^C -- B (b)" (c8 _d8 ^c8 !breath!B8) |] %14
V:2
 (E8 _E8 _E8 _D8) |] (G8 G8 ^G8 ^G8) |] (E8 _E8 =E8 D8) |] (G8 _A8 _A8 G8) |] (G8 G8 ^G8 ^F8) |] %5
 (E8 ^F8 ^F8 E8) |] (G8 G8 G8 F8) |] (G8 ^G8 _A8 _G8) |] (G8 ^G8 ^G8 ^F8) |] (G8 _G8 ^F8 =G8) |] %10
 (G8 G8 ^F8 G8) |] (G8 _A8 ^G8 =A8) |] (E8 _E8 _E8 !courtesy!_D8) |] (G8 _A8 ^F8 ^F8) |] %14
V:3
 (C8 _D8 C8 _A,8) |] (C8 _D8 ^F8 E8) |] (C8 _D8 ^C8 =D8) |] (E8 F8 F8 _E8) |] (E8 _E8 ^E8 ^D8) |] %5
 (C8 ^D8 ^D8 B,8) |] (E8 _E8 =E8 C8) |] (C8 D8 _D8 _D8) |] (C8 D8 ^C8 ^C8) |] (E8 _F8 D8 D8) |] %10
 (E8 _E8 D8 D8) |] (E8 F8 E8 E8) |] (G,8 G,8 F,8 F,8) |] (E8 F8 E8 !courtesy!^D8) |] %14
V:4
 (C,8 _B,,8 _A,,8 _D,8) |] (E,8 _E,8 ^D,8 ^C,8) |] (C,8 _B,,8 A,,8 D,8) |] (C,8 _C,8 _B,,8 _E,8) |] %4
 (C,8 _B,,8 ^A,,8 ^D,8) |] (C,8 ^B,,8 =B,,8 E,8) |] (C,8 _D,8 C,8 F,8) |] (E,8 E,8 F,8 _G,8) |] %8
 (E,8 E,8 ^E,8 ^F,8) |] (C,8 _B,,8 A,,8 G,,8) |] (C,8 _D,8 =D,8 G,8) |] (C,8 _C,8 B,,8 A,,8) |] %12
 (C,8 _D,8 C,8 _B,,8) |] (C,8 _C,8 ^A,,8 B,,8) |] %14

